X:41
T:I Buried My Wife And Danced On Her Grave
C:Traditional
R:jig
K:D
M:6/8
L:1/8
|: DDD F2G| AdB cAF| GGG BAG| FFF GEA|
! DDD F2G| AdB cAF| GGG BAG| AFD D2A:| ! |:
d2e fed| faf gfe| d2e fed| dcA dcA|
! d2e fed| faf gfe| dcA BAG| AFD D3:|
%%footer JamBuddy 2025 - No rights reserved, public domain

